**kern	**text	**kern	**text	**kern	**text	**kern	**text	**kern	**text
*staff5	*staff5	*staff4	*staff4	*staff3	*staff3	*staff2	*staff2	*staff1	*staff1
*I"Basso	*	*I"Tenore	*	*I"Alto	*	*I"Soprano II	*	*I"Soprano I	*
=1-	=1-	=1-	=1-	=1-	=1-	=1-	=1-	=1-	=1-
*clefF4	*	*clefGv2	*	*clefGv2	*	*clefG2	*	*clefG2	*
*k[b-]	*	*k[b-]	*	*k[b-]	*	*k[b-]	*	*k[b-]	*
*met(c|)	*	*met(c|)	*	*met(c|)	*	*met(c|)	*	*met(c|)	*
*M2/2	*	*M2/2	*	*M2/2	*	*M2/2	*	*M2/2	*
1r	.	[1G	Ve-	1r	.	1r	.	1r	.
=2	=2	=2	=2	=2	=2	=2	=2	=2	=2
1r	.	2G/]	.	1r	.	1r	.	[1d	Ve-
.	.	2A/	-lum	.	.	.	.	.	.
=3	=3	=3	=3	=3	=3	=3	=3	=3	=3
1r	.	1B-	tem-	1r	.	1r	.	2d/]	.
.	.	.	.	.	.	.	.	2e/	-lum
=4	=4	=4	=4	=4	=4	=4	=4	=4	=4
[1D	Ve-	1A	-pli	1r	.	1r	.	1f	tem-
=5	=5	=5	=5	=5	=5	=5	=5	=5	=5
2D\]	.	2F/	scis-	[1A	Ve-	1r	.	1f	-pli
2E\	-lum	2G/	.	.	.	.	.	.	.
=6	=6	=6	=6	=6	=6	=6	=6	=6	=6
1F	tem-	1A	-sum	2A/]	.	1r	.	1d	scis-
.	.	.	.	2B-\	-lum	.	.	.	.
=7	=7	=7	=7	=7	=7	=7	=7	=7	=7
1C	-pli	2G/	est,	1c	tem-	1r	.	2.e-/	.
.	.	2A/	scis-	.	.	.	.	.	.
.	.	.	.	.	.	.	.	4e-/	-sum
=8	=8	=8	=8	=8	=8	=8	=8	=8	=8
1r	.	[1B-	-sum	1G	-pli	1r	.	[1d	est,
=9	=9	=9	=9	=9	=9	=9	=9	=9	=9
1G	scis-	2B-\]	.	[1B-	scis-	1r	.	1d]	.
.	.	2G/	est,	.	.	.	.	.	.
=10	=10	=10	=10	=10	=10	=10	=10	=10	=10
1E-	-sum	2B-\	scis-	2B-\]	.	1r	.	2.g/	scis-
.	.	2G/	-sum	2c\	-sum	.	.	.	.
.	.	.	.	.	.	.	.	4g/	-sum
=11	=11	=11	=11	=11	=11	=11	=11	=11	=11
!!linebreak:original
[1D	est,	[1A	est,	[1d	est,	1r	.	[1f#	est,
=12	=12	=12	=12	=12	=12	=12	=12	=12	=12
1D]	.	1A]	.	1d]	.	1r	.	1f#]	.
=13||	=13||	=13||	=13||	=13||	=13||	=13||	=13||	=13||	=13||
1r	.	1r	.	1r	.	1r	.	1d	Et
=14	=14	=14	=14	=14	=14	=14	=14	=14	=14
1r	.	1r	.	1G	Et	1r	.	2g/	o-
.	.	.	.	.	.	.	.	2g/	-mnis
=15	=15	=15	=15	=15	=15	=15	=15	=15	=15
1r	.	1D	Et	2d\	o-	1r	.	1f	ter-
.	.	.	.	2d\	-mnis	.	.	.	.
=16	=16	=16	=16	=16	=16	=16	=16	=16	=16
1GG	Et	2G/	o-	1B-	ter-	1r	.	1d	-ra
.	.	2G/	-mnis	.	.	.	.	.	.
=17	=17	=17	=17	=17	=17	=17	=17	=17	=17
2D\	o-	1F	ter-	1A	-ra	1r	.	[1f	tre-
2D\	-mnis	.	.	.	.	.	.	.	.
=18	=18	=18	=18	=18	=18	=18	=18	=18	=18
1BB-	ter-	1D	-ra	2r	.	1r	.	2f/]	.
.	.	.	.	[2d\	tre-	.	.	2g/	-mu-
=19	=19	=19	=19	=19	=19	=19	=19	=19	=19
1AA	-ra	2F/	tre-	2d\]	.	1r	.	1a	-it
.	.	2E/	-mu-	2c\	-mu-	.	.	.	.
=20	=20	=20	=20	=20	=20	=20	=20	=20	=20
2r	.	2D/	-it	2d\	-it	1r	.	[1f	tre-
[2D\	tre-	[2A/	tre-	[2d\	tre-	.	.	.	.
=21	=21	=21	=21	=21	=21	=21	=21	=21	=21
2D\]	.	2A/]	.	2d\]	.	1r	.	2f/]	.
2AA/	-mu-	2A/	-mu-	2c#\	-mu-	.	.	2e/	-mu-
=22	=22	=22	=22	=22	=22	=22	=22	=22	=22
!!pagebreak:original
1AA	-it:	1A	-it:	1c#	-it:	1r	.	1e	-it:
=23	=23	=23	=23	=23	=23	=23	=23	=23	=23
2r	.	2r	.	2r	.	1r	.	2r	.
[2D\	la-	[2F/	la-	[2A/	la-	.	.	[2d/	la-
=24	=24	=24	=24	=24	=24	=24	=24	=24	=24
2D\]	.	2F/]	.	2A/]	.	1r	.	2d/]	.
2C/	-tro	2G/	-tro	2c\	-tro	.	.	2e/	-tro
=25	=25	=25	=25	=25	=25	=25	=25	=25	=25
2BB-/	de	2B-\	de	2d\	de	1r	.	2f/	de
[2E-\	cru-	[2G/	cru-	[2B-\	cru-	.	.	[2g/	cru-
=26	=26	=26	=26	=26	=26	=26	=26	=26	=26
2E-\]	.	2G/]	.	2B-\]	.	1r	.	2g/]	.
2D\	-ce	2A/	-ce	2d\	-ce	.	.	2f#/	-ce
=27	=27	=27	=27	=27	=27	=27	=27	=27	=27
1G	cla-	1B-	cla-	1d	cla-	1r	.	2g/	cla-
.	.	.	.	.	.	.	.	2b-\	.
=28	=28	=28	=28	=28	=28	=28	=28	=28	=28
1F	-ma-	1c	-ma-	1f	-ma-	1r	.	4b-\	.
.	.	.	.	.	.	.	.	8b-/L	.
.	.	.	.	.	.	.	.	8a/J	.
.	.	.	.	.	.	.	.	2a/	-mat
=29	=29	=29	=29	=29	=29	=29	=29	=29	=29
1BB-	-vit	1d	-vit	1f	-vit	1r	.	1b-	val-
=30	=30	=30	=30	=30	=30	=30	=30	=30	=30
1C	di-	1c	di-	1e-	di-	1r	.	1g	.
=31	=31	=31	=31	=31	=31	=31	=31	=31	=31
1D	-cens:	1A	-cens:	1d	-cens:	1r	.	1f#	-de
=32	=32	=32	=32	=32	=32	=32	=32	=32	=32
1r	.	1r	.	2r	.	1r	.	1r	.
.	.	.	.	2G/	Me-	.	.	.	.
=33	=33	=33	=33	=33	=33	=33	=33	=33	=33
!!linebreak:original
1r	.	1r	.	2A/	-men-	1r	.	1d	Me-
.	.	.	.	2G/	-to	.	.	.	.
=34	=34	=34	=34	=34	=34	=34	=34	=34	=34
1r	.	2r	.	[1B-	me-	1r	.	[1d	-men-
.	.	2G/	Me-	.	.	.	.	.	.
=35	=35	=35	=35	=35	=35	=35	=35	=35	=35
1r	.	2G/	-men-	1B-]	.	1r	.	2d/]	.
.	.	2G/	-to	.	.	.	.	2d/	-to
=36	=36	=36	=36	=36	=36	=36	=36	=36	=36
1r	.	1D	me-	1A	-i,	1r	.	1f	me-
=37	=37	=37	=37	=37	=37	=37	=37	=37	=37
1r	.	1C	-i,	1c	Do-	1r	.	1e	-i,
=38	=38	=38	=38	=38	=38	=38	=38	=38	=38
1r	.	[1E	Do-	[1B-	.	1r	.	[1g	Do-
=39	=39	=39	=39	=39	=39	=39	=39	=39	=39
1r	.	2E/]	.	2B-\]	.	1r	.	2g/]	.
.	.	2E/	-mi-	2c\	-mi-	.	.	2g/	-mi-
=40	=40	=40	=40	=40	=40	=40	=40	=40	=40
1r	.	1D	-ne,	1d	-ne,	1r	.	1f#	-ne,
=41	=41	=41	=41	=41	=41	=41	=41	=41	=41
2r	.	2r	.	2r	.	1r	.	2r	.
2D\	dum	2A/	dum	2d\	dum	.	.	2f#/	dum
=42	=42	=42	=42	=42	=42	=42	=42	=42	=42
[1G	ve-	[1B-	ve-	[1d	ve-	1r	.	[1g	ve-
=43	=43	=43	=43	=43	=43	=43	=43	=43	=43
2G\]	.	2B-\]	.	2d\]	.	1r	.	2g/]	.
2G\	-ne-	2B-\	-ne-	2d\	-ne-	.	.	2g/	-ne-
=44	=44	=44	=44	=44	=44	=44	=44	=44	=44
!!linebreak:original
2D\	-ris	2A/	-ris	2d\	-ris	1r	.	2f#/	-ris
2G\	in	2B-\	in	2d\	in	.	.	2g/	in
=45	=45	=45	=45	=45	=45	=45	=45	=45	=45
2.GG/	re-	[1B-	re-	[1d	re-	1r	.	1g	re-
4AA/	-gnum	.	.	.	.	.	.	.	.
=46	=46	=46	=46	=46	=46	=46	=46	=46	=46
2BB-/	tu-	2B-\]	.	2d\]	.	1r	.	2f/	.
2C/	.	2G/	.	4c\	.	.	.	2e-/	-gnum
.	.	.	.	4B-\	.	.	.	.	.
=47	=47	=47	=47	=47	=47	=47	=47	=47	=47
[1D	.	2F#/	-gnum	2A/	.	1r	.	[1d	tu-
.	.	[2G/	tu-	2B-\	-gnum	.	.	.	.
=48	=48	=48	=48	=48	=48	=48	=48	=48	=48
1D]	.	2G/]	.	1A	tu-	1r	.	1d]	.
.	.	2F#i/	.	.	.	.	.	.	.
=49	=49	=49	=49	=49	=49	=49	=49	=49	=49
[1GG	-um.	[1G	-um.	[1Bni	-um.	1r	.	[1d	-um.
=50	=50	=50	=50	=50	=50	=50	=50	=50	=50
1GG]	.	1G]	.	1B]	.	1r	.	1d]	.
=51||	=51||	=51||	=51||	=51||	=51||	=51||	=51||	=51||	=51||
1r	.	1r	.	[1G	Pe-	[1dd	Pe-	[1b-	Pe-
=52	=52	=52	=52	=52	=52	=52	=52	=52	=52
1r	.	1r	.	2G/]	.	2dd\]	.	2b-\]	.
.	.	.	.	2A/	-trae	2cc\	-trae	2a/	-trae
=53	=53	=53	=53	=53	=53	=53	=53	=53	=53
1r	.	1r	.	2B-\	scis-	1b-	scis-	1g	scis-
.	.	.	.	2c\	-sae	.	.	.	.
=54	=54	=54	=54	=54	=54	=54	=54	=54	=54
1r	.	1r	.	1d	sunt,	1a	-sae	1f#	-sae
=55	=55	=55	=55	=55	=55	=55	=55	=55	=55
!!pagebreak:original
1r	.	1r	.	1r	.	[1g	sunt,	1g	sunt,
=56	=56	=56	=56	=56	=56	=56	=56	=56	=56
1r	.	1r	.	1B-	et	1g]	.	2r	.
.	.	.	.	.	.	.	.	2d/	et
=57	=57	=57	=57	=57	=57	=57	=57	=57	=57
1r	.	1r	.	2B-\	mo-	1r	.	2d/	mo-
.	.	.	.	2c\	-nu-	.	.	2e/	-nu-
=58	=58	=58	=58	=58	=58	=58	=58	=58	=58
1r	.	1r	.	1d	-men-	1r	.	1f	-men-
=59	=59	=59	=59	=59	=59	=59	=59	=59	=59
1r	.	1r	.	1c	-ta	2g/	et	1e	-ta
.	.	.	.	.	.	2g/	mo-	.	.
=60	=60	=60	=60	=60	=60	=60	=60	=60	=60
1r	.	1r	.	2r	.	2a/	-nu-	2f#/	a-
.	.	.	.	2B-\	a-	[2b-\	-men-	[2g/	-per-
=61	=61	=61	=61	=61	=61	=61	=61	=61	=61
1r	.	1r	.	2c\	-per-	2b-\]	.	2g/]	.
.	.	.	.	2d\	-ta	2a/	.	2f#/	-ta
=62	=62	=62	=62	=62	=62	=62	=62	=62	=62
1r	.	1r	.	1G	sunt,	1b-	-ta	1g	sunt,
=63	=63	=63	=63	=63	=63	=63	=63	=63	=63
1r	.	1r	.	1e-	a-	2r	.	1r	.
.	.	.	.	.	.	2g/	a-	.	.
=64	=64	=64	=64	=64	=64	=64	=64	=64	=64
1r	.	1r	.	2c\	-per-	2g/	-per-	1a	et
.	.	.	.	2d\	-ta	2f#/	-ta	.	.
=65	=65	=65	=65	=65	=65	=65	=65	=65	=65
1r	.	1r	.	1G	sunt,	1g	sunt,	[1b-	mul-
=66	=66	=66	=66	=66	=66	=66	=66	=66	=66
!!linebreak:original
1r	.	1r	.	2d\	et	1r	.	2b-\]	.
.	.	.	.	[2e-\	mul-	.	.	[2g/	-ta
=67	=67	=67	=67	=67	=67	=67	=67	=67	=67
1r	.	1r	.	2e-\]	.	1r	.	2g/]	.
.	.	.	.	2c\	-ta	.	.	[2a/	cor-
=68	=68	=68	=68	=68	=68	=68	=68	=68	=68
1r	.	1r	.	1d	cor-	1r	.	2a/]	.
.	.	.	.	.	.	.	.	2f/	-po-
=69	=69	=69	=69	=69	=69	=69	=69	=69	=69
1r	.	1r	.	2B-\	.	1r	.	2g/	-ra
.	.	.	.	2c\	-po-	.	.	2a/	san-
=70	=70	=70	=70	=70	=70	=70	=70	=70	=70
1r	.	1r	.	2d\	-ra	1r	.	1b-	-cto-
.	.	.	.	2e-\	san-	.	.	.	.
=71	=71	=71	=71	=71	=71	=71	=71	=71	=71
1r	.	1r	.	2e-\	-cto-	1r	.	2g/	-rum,
.	.	.	.	2d\	-rum,	.	.	2f#/	qui
=72	=72	=72	=72	=72	=72	=72	=72	=72	=72
1r	.	1r	.	2B-\	qui	1r	.	2d/	dor-
.	.	.	.	2G/	dor-	.	.	[2g/	-mi-
=73	=73	=73	=73	=73	=73	=73	=73	=73	=73
1r	.	1r	.	2B-\	-mi-	1r	.	2g/]	.
.	.	.	.	2c\	-e-	.	.	2g/	-e-
=74	=74	=74	=74	=74	=74	=74	=74	=74	=74
1r	.	1r	.	1d	-rant,	1r	.	1f#	-rant,
=75	=75	=75	=75	=75	=75	=75	=75	=75	=75
1r	.	1r	.	1r	.	1r	.	2r	.
.	.	.	.	.	.	.	.	[2g/	sur-
=76	=76	=76	=76	=76	=76	=76	=76	=76	=76
!!linebreak:original
1r	.	1r	.	1r	.	2.dd\	sur-	4g/]	.
.	.	.	.	.	.	.	.	8f/L	.
.	.	.	.	.	.	.	.	8e/J	.
.	.	.	.	.	.	.	.	4d/	.
.	.	.	.	.	.	8cc\L	.	4e/	.
.	.	.	.	.	.	8b-\J	.	.	.
=77	=77	=77	=77	=77	=77	=77	=77	=77	=77
1r	.	1r	.	2.d\	sur-	2.a/	.	2.f/	.
.	.	.	.	8c\L	.	4b-\	.	4g/	.
.	.	.	.	8B-\J	.	.	.	.	.
=78	=78	=78	=78	=78	=78	=78	=78	=78	=78
1r	.	1r	.	2.A/	.	2.cc\	.	4a/	.
.	.	.	.	.	.	.	.	8g/L	.
.	.	.	.	.	.	.	.	8f/J	.
.	.	.	.	.	.	.	.	2e/	.
.	.	.	.	4B-\	.	8b-/L	.	.	.
.	.	.	.	.	.	8a/J	.	.	.
=79	=79	=79	=79	=79	=79	=79	=79	=79	=79
1r	.	1r	.	2c\	.	2g/	.	2e/	-re-
.	.	.	.	2G/	-re-	2b-\	-re-	[2g/	-xe-
=80	=80	=80	=80	=80	=80	=80	=80	=80	=80
1r	.	1r	.	1d	-xe-	1a	-xe-	4g/]	.
.	.	.	.	.	.	.	.	8f#/L	.
.	.	.	.	.	.	.	.	8e/J	.
.	.	.	.	.	.	.	.	2f#/	.
=81	=81	=81	=81	=81	=81	=81	=81	=81	=81
1r	.	1r	.	[1G	-runt.	[1g	-runt.	[1g	-runt.
=82	=82	=82	=82	=82	=82	=82	=82	=82	=82
1r	.	1r	.	1G]	.	1g]	.	1g]	.
=83||	=83||	=83||	=83||	=83||	=83||	=83||	=83||	=83||	=83||
1r	.	1r	.	1r	.	1r	.	1d	Et
=84	=84	=84	=84	=84	=84	=84	=84	=84	=84
1r	.	1r	.	1G	Et	1r	.	2g/	o-
.	.	.	.	.	.	.	.	2g/	-mnis
=85	=85	=85	=85	=85	=85	=85	=85	=85	=85
1r	.	1D	Et	2d\	o-	1r	.	1f	ter-
.	.	.	.	2d\	-mnis	.	.	.	.
=86	=86	=86	=86	=86	=86	=86	=86	=86	=86
!!pagebreak:original
1GG	Et	2G/	o-	1B-	ter-	1r	.	1d	-ra
.	.	2G/	-mnis	.	.	.	.	.	.
=87	=87	=87	=87	=87	=87	=87	=87	=87	=87
2D\	o-	1F	ter-	1A	-ra	1r	.	[1f	tre-
2D\	-mnis	.	.	.	.	.	.	.	.
=88	=88	=88	=88	=88	=88	=88	=88	=88	=88
1BB-	ter-	1D	-ra	2r	.	1r	.	2f/]	.
.	.	.	.	[2d\	tre-	.	.	2g/	-mu-
=89	=89	=89	=89	=89	=89	=89	=89	=89	=89
1AA	-ra	2F/	tre-	2d\]	.	1r	.	1a	-it
.	.	2E/	-mu-	2c\	-mu-	.	.	.	.
=90	=90	=90	=90	=90	=90	=90	=90	=90	=90
2r	.	2D/	-it	2d\	-it	1r	.	[1f	tre-
[2D\	tre-	[2A/	tre-	[2d\	tre-	.	.	.	.
=91	=91	=91	=91	=91	=91	=91	=91	=91	=91
2D\]	.	2A/]	.	2d\]	.	1r	.	2f/]	.
2AA/	-mu-	2A/	-mu-	2c#\	-mu-	.	.	2e/	-mu-
=92	=92	=92	=92	=92	=92	=92	=92	=92	=92
1AA	-it:	1A	-it:	1c#	-it:	1r	.	1e	-it:
=93	=93	=93	=93	=93	=93	=93	=93	=93	=93
2r	.	2r	.	2r	.	1r	.	2r	.
[2D\	la-	[2F/	la-	[2A/	la-	.	.	[2d/	la-
=94	=94	=94	=94	=94	=94	=94	=94	=94	=94
2D\]	.	2F/]	.	2A/]	.	1r	.	2d/]	.
2C/	-tro	2G/	-tro	2c\	-tro	.	.	2e/	-tro
=95	=95	=95	=95	=95	=95	=95	=95	=95	=95
2BB-/	de	2B-\	de	2d\	de	1r	.	2f/	de
[2E-\	cru-	[2G/	cru-	[2B-\	cru-	.	.	[2g/	cru-
=96	=96	=96	=96	=96	=96	=96	=96	=96	=96
2E-\]	.	2G/]	.	2B-\]	.	1r	.	2g/]	.
2D\	-ce	2A/	-ce	2d\	-ce	.	.	2f#/	-ce
=97	=97	=97	=97	=97	=97	=97	=97	=97	=97
!!linebreak:original
1G	cla-	1B-	cla-	1d	cla-	1r	.	2g/	cla-
.	.	.	.	.	.	.	.	[2b-\	.
=98	=98	=98	=98	=98	=98	=98	=98	=98	=98
1F	-ma-	1c	-ma-	1f	-ma-	1r	.	4b-\]	.
.	.	.	.	.	.	.	.	8b-/L	.
.	.	.	.	.	.	.	.	8a/J	.
.	.	.	.	.	.	.	.	2a/	-mat
=99	=99	=99	=99	=99	=99	=99	=99	=99	=99
1BB-	-vit	1d	-vit	1f	-vit	1r	.	1b-	val-
=100	=100	=100	=100	=100	=100	=100	=100	=100	=100
1C	di-	1c	di-	1e-	di-	1r	.	1g	.
=101	=101	=101	=101	=101	=101	=101	=101	=101	=101
1D	-cens:	1A	-cens:	1d	-cens:	1r	.	1f#	-de
=102	=102	=102	=102	=102	=102	=102	=102	=102	=102
1r	.	1r	.	2r	.	1r	.	1r	.
.	.	.	.	2G/	Me-	.	.	.	.
=103	=103	=103	=103	=103	=103	=103	=103	=103	=103
1r	.	1r	.	2A/	-men-	1r	.	1d	Me-
.	.	.	.	2G/	-to	.	.	.	.
=104	=104	=104	=104	=104	=104	=104	=104	=104	=104
1r	.	2r	.	[1B-	me-	1r	.	[1d	-men-
.	.	2G/	Me-	.	.	.	.	.	.
=105	=105	=105	=105	=105	=105	=105	=105	=105	=105
1r	.	2G/	-men-	1B-]	.	1r	.	2d/]	.
.	.	2G/	-to	.	.	.	.	2d/	-to
=106	=106	=106	=106	=106	=106	=106	=106	=106	=106
1r	.	1D	me-	1A	-i,	1r	.	1f	me-
=107	=107	=107	=107	=107	=107	=107	=107	=107	=107
1r	.	1C	-i,	1c	Do-	1r	.	1e	-i,
=108	=108	=108	=108	=108	=108	=108	=108	=108	=108
!!linebreak:original
1r	.	[1E	Do-	[1B-	.	1r	.	[1g	Do-
=109	=109	=109	=109	=109	=109	=109	=109	=109	=109
1r	.	2E/]	.	2B-\]	.	1r	.	2g/]	.
.	.	2E/	-mi-	2c\	-mi-	.	.	2g/	-mi-
=110	=110	=110	=110	=110	=110	=110	=110	=110	=110
1r	.	1D	-ne,	1d	-ne,	1r	.	1f#	-ne,
=111	=111	=111	=111	=111	=111	=111	=111	=111	=111
2r	.	2r	.	2r	.	1r	.	2r	.
2D\	dum	2A/	dum	2d\	dum	.	.	2f#/	dum
=112	=112	=112	=112	=112	=112	=112	=112	=112	=112
[1G	ve-	[1B-	ve-	[1d	ve-	1r	.	[1g	ve-
=113	=113	=113	=113	=113	=113	=113	=113	=113	=113
2G\]	.	2B-\]	.	2d\]	.	1r	.	2g/]	.
2G\	-ne-	2B-\	-ne-	2d\	-ne-	.	.	2g/	-ne-
=114	=114	=114	=114	=114	=114	=114	=114	=114	=114
2D\	-ris	2A/	-ris	2d\	-ris	1r	.	2f#/	-ris
2G\	in	2B-\	in	2d\	in	.	.	2g/	in
=115	=115	=115	=115	=115	=115	=115	=115	=115	=115
2.GG/	re-	[1B-	re-	[1d	re-	1r	.	1g	re-
4AA/	-gnum	.	.	.	.	.	.	.	.
=116	=116	=116	=116	=116	=116	=116	=116	=116	=116
2BB-/	tu-	2B-\]	.	2d\]	.	1r	.	2f/	.
2C/	.	2G/	.	4c\	.	.	.	2e-/	-gnum
.	.	.	.	4B-\	.	.	.	.	.
=117	=117	=117	=117	=117	=117	=117	=117	=117	=117
[1D	.	2F#/	-gnum	2A/	.	1r	.	[1d	tu-
.	.	[2G/	tu-	2B-\	-gnum	.	.	.	.
=118	=118	=118	=118	=118	=118	=118	=118	=118	=118
1D]	.	2G/]	.	1A	tu-	1r	.	1d]	.
.	.	2F#i/	.	.	.	.	.	.	.
=119	=119	=119	=119	=119	=119	=119	=119	=119	=119
[1GG	-um.	[1G	-um.	[1Bni	-um.	1r	.	[1d	-um.
=120	=120	=120	=120	=120	=120	=120	=120	=120	=120
1GG]	.	1G]	.	1B]	.	1r	.	1d]	.
==	==	==	==	==	==	==	==	==	==
*-	*-	*-	*-	*-	*-	*-	*-	*-	*-
!!!OTL: Velum templi 
!!!COM: Ingegneri, Marc' Antonio
!!!CDT: ca. 1535/36-1592-07-01
!!!TXO: Latin
!!!ODT: 
!!!ARL: Klasztor OO. Paulinów na Jasnej Górze
!!!voices:	5
!!title: @{OTL}, @{GTL}, ed. @{ENC}
!!!pag:
!!!GTL: Responsoria in Hebdomada majore
!!!EFL: 
!!!YEM: Creative Commons CC/BY/NC/SA 4.0
!!!ENC: Marcin Konik
!!!END: 2015-0m-dd
!!!EED: Marcin Konik
!!!EEV: 
!!!ONB: Encoded in vim by Marcin Konik
!!!CharacterEncoding: utf-8
!!!RDF**kern: l=long note in original notation
!!!RDF**kern: i=editorial accidental
!!muse2ps: z14jc180F
